!!!!SEGMENT: pl-sa--554-a-ix-34--012_anonim--allegretto.krn
!!!cenid: 17xx:1830
!!!COM: Anonim
!!!COM-rismID: pe30004985
!!!CDT:
!!!CNT:
!!!OTL: Allegretto
!!!PDT:
!!!AGN:
!!!YEC: Copyright 2022 Narodowy Instytut Fryderyka Chopina (https://polishscores.org)
!!!YEM: License CC-BY-4.0 (https://creativecommons.org/licenses/by/4.0)
!!!SMS-siglum: PL-SA
!!!SMS-shelfmark: 554/A IX 34
!!!SMS-shelfwork: 012 W
!!!SMS-variant:
!!!SMS-altvar:
!!!NIFC-rismSourceID: 1001069592
!!!NIFC-rismChildID: 1001069592
!!!NIFC-islandoraID: none
!!!URL-pdf-islandora:
!!!URL-scan: https://bc.bdsandomierz.pl/dlibra/publication/1310/edition/1278/content @EN{Scan in the Sandomierz Diocese Digital Library} @PL{Skany w portalu Cyfrowa Biblioteka Diecezjalna w Sandomierzu}
!!!IIIF:
!!!ONB-nifc: UWAGA: str. 9, s. 2-5
!!!AIN: 1 empty
!!!key:
**kern	**kern	**dynam
*part1	*part1	*
*staff2	*staff1	*
*ICklav	*	*
*Iempty	*Iempty	*
*I"	*I"	*
*I'	*I'	*
*clefF4	*clefG2	*
*k[f#c#]	*k[f#c#]	*
*D:	*D:	*
*M2/4	*M2/4	*
*>[A,A,B,B1,B,B2,C,C,D,D,E,A]	*	*
=1	=1	=1
*>A	*	*
!	!LO:TX:a:i:t=Allegretto.	!
8D\L	4dd\	.
8A\	.	.
8F#\	(8dd\L	.
8A\J	8ff#\J)	.
=2	=2	=2
*rep	*	*
8D\L	4aa'\	.
8A\	.	.
8F#\	4aa'\	.
8A\J	.	.
*Xrep	*	*
=3	=3	=3
8C#\L	4ee\	.
8A\	.	.
.	32qqff#/LLL	.
.	32qqee/	.
.	32qqdd#X/JJJ	.
8E\	8.ee\L	.
8A\J	.	.
.	16ff#\Jk	.
=4	=4	=4
8AA/L	4.gg\	.
8C#/	.	.
8E/	.	.
8G/J	8ee\	.
=5	=5	=5
8BB\L	4dd\	sf
8F#\	.	.
8D\	8dd\L	.
8F#\J	8ff#\J	.
=6	=6	=6
8GG\L	4ee\	.
8E\	.	.
8BB\	8ee\L	.
8E\J	8gg\J	.
=7	=7	=7
!LO:TX:t=P:problem=mixed beam	!	!
.	8qdd/	.
8AA/L	8cc#\L	.
8G\	16r	.
.	16b\Jk	.
8E\	8cc#\L	.
8G\J	16r	.
.	16ee\Jk	.
=8	=8	=8
4F# 4D\	4dd\	.
4r	4r	.
=9:|!|:	=9:|!|:	=9:|!|:
*>B	*	*
!	!LO:TX:b:i:t=dal	!
8c#\L	4ee\	.
8E\J	.	.
*rep	*	*
8c#\L	4ee\	.
8E\J	.	.
*Xrep	*	*
=10	=10	=10
8c#\L	4.ee\	.
8E\	.	.
8A\	.	.
8E\J	8cc#\	.
=11	=11	=11
!LO:SIC:v:o=8G\L	!	!
8G#	8b\L	.
8E\J	16r	.
.	16cc#\Jk	.
*rep	*	*
!LO:SIC:v:o=8G\L	!	!
8G#	8dd\L	.
8E\J	16r	.
.	16ee\Jk	.
*Xrep	*	*
=12	=12	=12
8B\L	4dd\	.
8E\	.	.
8A\	8cc#\	.
8E\J	8r	.
=13	=13	=13
8c#\L	4ee\	.
8A\J	.	.
*rep	*	*
8c#\L	4ee\	.
8A\J	.	.
*Xrep	*	*
=14	=14	=14
8d\L	8ff#\L	.
8B\	8gg#X\	.
8c#\	8aa\	.
8d\J	16r	.
.	16bb\Jk	.
!!LO:LB:g=original
=15	=15	=15
8e\L	4ccc#\	.
8E\J	.	.
8d\L	8.bbT\L	.
8E\J	.	.
.	16ccc#\Jk	.
=16	=16	=16
4c# 4A;\	4aa;\	.
!	!LO:TX:t=P:problem=klamra łukowa	!
4r;	12gg#X\L	.
.	12ggn\	.
.	12ee\J	.
=17	=17	=17
8D\L	4dd\	p
8A\	.	.
8F#\	(8dd\L	.
8A\J	8ff#\J)	.
=18	=18	=18
*rep	*	*
8D\L	4aa\	.
8A\	.	.
8F#\	4aa\	.
8A\J	.	.
*Xrep	*	*
=19	=19	=19
!	!LO:TX:t=P:problem=obiegnik z krzyżykiem na dole	!
8C#\L	4ee\	.
8A\	.	.
8E\	(8.ee\L	.
8A\J	.	.
.	16ff#\Jk)	.
=20	=20	=20
8AA\L	(4.gg\	.
8C#\	.	.
8E\	.	.
8G\J	8ee\)	.
=21	=21	=21
8BB\L	4dd\	.
8F#\	.	.
8D\	(8dd\L	.
8F#\J	8ff#\J)	.
=22	=22	=22
8GG\L	4ee\	.
8E\	.	.
8BB\	8ee\L	.
8E\J	8gg\J	.
=23	=23	=23
.	8qdd/	.
8AA/L	8cc#\L	.
8G/	16r	.
.	16b\Jk	.
8E/	8cc#\L	.
8G/J	16r	.
.	16ee\Jk	.
=24	=24	=24
*>B1	*	*
4F# 4D\	4dd\	.
4r	4r	.
=:|!	=:|!	=:|!
*>B2	*	*
4F# 4D\	4dd\	.
8r	8r	.
=25||	=25||	=25||
*>C	*	*
*M2/4	*M2/4	*
!	!LO:TX:a:i:t=Varianti	!
8r	8aa\	.
*clefG2	*	*
=26	=26	=26
*	*Xtuplet	*
4a 4f#/	12ddd\L	.
.	12aa\	.
.	12ddd\J	.
4g 4e/	12ccc#\L	.
.	12aa\	.
.	12ccc#\J	.
=27	=27	=27
4f# 4d/	12ddd\L	.
.	12aa\	.
.	12ff#\J	.
4r	12dd\L	.
.	12ff#\	.
.	12aa\J	.
=28	=28	=28
4a 4f#/	12ddd\L	.
.	12aa\	.
.	12ddd\J	.
4g 4e/	12ccc#\L	.
.	12aa\	.
.	12ccc#\J	.
!!LO:LB:g=original
=29	=29	=29
4f# 4d/	12ddd\L	.
.	12aa\	.
.	12ff#\J	.
4r	12dd\L	.
.	12ff#\	.
.	12aa\J	.
*clefF4	*	*
=30	=30	=30
4d 4D\	12ddd\L	.
.	12aa\	.
.	12ff#\J	.
4d 4B 4E\	12ddd\L	.
.	12bb\	.
.	12gg#X\J	.
=31	=31	=31
4c# 4A\	12ccc#\L	.
.	12aa\	.
.	12ee\J	.
4r	12aa\L	.
.	12ee\	.
.	12cc#\J	.
=32	=32	=32
4d 4D\	12b\L	.
.	12cc#\	.
.	12dd\J	.
4d 4B 4E\	12e/L	.
.	12f#/	.
.	12g#X/J	.
=	=	=
4c# 4A\	4a/	.
8r	8r	.
=33:|!|:	=33:|!|:	=33:|!|:
*>D	*	*
8ryy	8a/	.
=34	=34	=34
*^	*	*
*	*2\right	*	*
4f#/	2A\	12aa\L	.
.	.	12ff#\	.
.	.	12dd#X\J	.
4d#X/	.	12b\L	.
.	.	12ff#\	.
.	.	12aa\J	.
=35	=35	=35	=35
4e/	4A\	12gg\L	.
.	.	12bb\	.
.	.	12gg\J	.
4r	4ryy	12ee\L	.
.	.	12gg\	.
.	.	12ff#\J	.
=36	=36	=36	=36
4e/	2A\	12gg\L	.
.	.	12ee\	.
.	.	12cc#\J	.
4c#/	.	12a\L	.
.	.	12ee\	.
.	.	12gg\J	.
*v	*v	*	*
=37	=37	=37
4d 4A\	12ff#\L	.
.	12aa\	.
.	12ff#\J	.
4d 4F#\	12dd\L	.
.	12ddd\	.
.	12ccc#\J	.
=38	=38	=38
2d 2G\	12cccn\L	.
.	12bb\	.
.	12bb-X\J	.
.	12aa\L	.
.	12gg#X\	.
.	12ggn\J	.
=39	=39	=39
4r	12ff#\L	.
.	12ee\	.
.	12dd#X\J	.
4B 4G\	12ee\L	.
.	12gg\	.
.	12bb\J	.
=40	=40	=40
!LO:TX:t=P:problem=klamra łukowa	!	!
!LO:TUP:a	!	!
12r	2dd 2f#/	.
12A\L	.	.
12G#X\J	.	.
*Xtuplet	*	*
12A\L	.	.
12G#\	.	.
12A\J	.	.
!!LO:LB:g=original
=41	=41	=41
4AA/	8cc# 8e/	.
.	8r	.
!	!LO:TX:t=P:problem=klamra łukowa	!
*	*tuplet	*
!	!LO:TUP:a	!
4r	12aa\L	.
.	12bb\	.
.	12ccc#\J	.
*clefG2	*	*
=42	=42	=42
*	*Xtuplet	*
4a 4f#/	12ddd\L	.
.	12aa\	.
.	12ddd\J	.
4g 4e/	12ccc#\L	.
.	12aa\	.
.	12ccc#\J	.
=43	=43	=43
4f# 4d/	12ddd\L	.
.	12aa\	.
.	12ff#\J	.
4r	12dd\L	.
.	12ff#\	.
.	12aa\J	.
=44	=44	=44
4a 4f#/	12ddd\L	.
.	12aa\	.
.	12ddd\J	.
4g 4e/	12ccc#\L	.
.	12bb\	.
.	12ccc#\J	.
=45	=45	=45
4f# 4d/	12ddd\L	.
.	12aa\	.
.	12ff#\J	.
!LO:TX:t=P:problem=brak zmiany klucza	!	!
4r	12dd\L	.
.	12ff#\	.
.	12aa\J	.
!LO:CL:ed	!	!
*clefF4	*	*
=46	=46	=46
4d 4G\	12bb\L	.
.	12gg\	.
.	12bb\J	.
4e 4G\	12ccc#\L	.
.	12aa\	.
.	12ccc#\J	.
=47	=47	=47
4d 4F#\	12ddd\L	.
.	12ccc#\	.
.	12bb\J	.
4r	12aa\L	.
.	12gg\	.
.	12ff#\J	.
=48	=48	=48
4g 4G\	12ee\L	.
.	12ff#\	.
.	12gg\J	.
4g 4e 4A\	12a\L	.
.	12b\	.
.	12cc#\J	.
=49	=49	=49
4f# 4d\	4dd\	.
8r	8r	.
8ryy	8ryy	.
=50:|!	=50:|!	=50:|!
*>E	*	*
4f# 4d\	4dd\	.
!	!LO:TX:b:i:t=Allegretto Da Capo	!
4r	4r	.
==	==	==
*-	*-	*-
!!!system-decoration: [(s1,s2)]
!!!ENC: Andrzej Borzym
!!!END: 2021-02-09
!!!ENC: Leszek Kubiak
!!!END: 2022-03-07
